X:1
T:Domingo No Rio
T:Score
T:Domingo No Rio 
T:©diogenesclementedamota01@gmail.com
T:©diogenesclementedamota01@gmail.com
T:©diogenesclementedamota01@gmail.com
T:©diogenesclementedamota01@gmail.com
Z:©diogenesclementedamota01@gmail.com
%%score [ 1 2 ] [ 3 4 ]
L:1/8
Q:1/4=140
M:2/4
K:Eb
V:1 treble transpose=-9 nm="Alto Sax" snm="A. Sx."
V:2 treble transpose=-14 nm="Tenor Sax" snm="T. Sx."
V:3 treble transpose=-2 nm="Trumpet in Bb" snm="Bb Tpt."
V:4 bass nm="Trombone" snm="Tbn."
V:1
[K:C]S z3/2 e/ d/c/B/A/ |:S ^GB dc- | cz/a/ g/f/e/d/ | ^ce gf- | f2 b/ab/ | ab ac'- | c'a ec | %7
 B/^d^f/ b/a/^g- | gz/e/ d/c/B/A/ | ^GB dc- | cz/a/ g/f/e/d/ | ^ce gf- | f2 b/ab/ | ab ac'- | %14
 c'a ec | f/dB/ ^GA | z [ce] z [ce] | z [ce] z [ce] |: EE/^F/ ^G/A/B- | B^G/B/ e/d/c/B/ | %20
 AA/B/ c/d/e- | e2 z2 | ^cc/d/ e/f/g- | g^c/e/ a/g/f/e/ | dd/e/ f/g/a- | a2 z/ d/f/a/ | %26
 b/af/ d!>!a- | a/ec/ A!>!f- | f/dB/ ^G!>!e- | e2 z/ d/f/a/ | b/af/ d!>!a- | a/ec/ A!>!f- | %32
 f/dB/ ^GA!D.C.! | z [ce] z [ce] |1 z [ce] z [ce] :|2 DF A z!D.S.! :| !fermata!e4!fine! |] %37
V:2
[K:F] z3/2 a/ g/ f/e/d/ |: ^ce gf- | fz/d'/ c'/b/a/g/ | ^fA cB- | B2 e/de/ | de df- | fd AF | %7
 E/^G=B/ e/d/^c- | cz/a/ g/f/e/d/ | ^ce gf- | fz/d'/ c'/b/a/g/ | ^fA cB- | B2 e/de/ | de df- | %14
 fd' af | b/ge/ ^cd | z [fa] z [fa] | z [fa] z [fa] |: AA/=B/ ^c/d/e- | e^c/e/ a/g/f/e/ | %20
 dd/e/ f/g/a- | a2 z2 | ^ff/g/ a/b/c'- | c'^f/a/ d'/c'/b/a/ | gg/a/ b/c'/d'- | d'2 z/ G/B/d/ | %26
 e/dB/ G!>!d- | d/af/ d!>!b- | b/ge/ ^c!>!a- | a2 z/ G/B/d/ | e/dB/ G!>!d- | d/af/ d!>!b- | %32
 b/ge/ ^cd | z [fa] z [fa] |1 z [fa] z [fa] :|2 GB d z :| !fermata!a4 |] %37
V:3
[K:F] z4 |: z e gf- | f z z2 | z A cB- | B z e/de/ | de df- | f z z2 | z4 | z4 | z e gf- | f z z2 | %11
 z A cB- | B z e/de/ | de df- | f z z2 | z4 | z [dfa] z [dfa] | z [dfa] z [dfa] |: z4 | z4 | z4 | %21
 z4 | z4 | z4 | z4 | z2 z/ G/B/d/ | e/dB/ G!>![GBd]- | [GBd]/ z/ z2 !>![Bdg]- | %28
 [Bdg] z z !>![Ac-f-] | [Acf] z z/ G/B/d/ | e/dB/ G!>![GBd-] | [GBd]/ z/ z2 !>![Bdg]- | %32
 [Bdg] z2 [Acf] | z [cfa] z [cfa] |1 z [cfa] z [cfa] :|2 Bd g z :| !fermata!a4 |] %37
V:4
 z4 |: z D FE- | E z z2 | z G, B,A,- | A, z D/CD/ | CD CE- | E z z2 | z4 | z4 | z D FE- | E z z2 | %11
 z G, B,A,- | A, z D/CD/ | CD CE- | E z z2 | z4 | z [CEG] z [CEG] | z [CEG] z [CEG] |: z4 | z4 | %20
 z4 | z4 | z4 | z4 | z4 | z4 | z2 z !>![F,A,C]- | [F,A,C]/ z/ z2 !>![A,CF]- | %28
 [A,CF] z z !>![G,B,-E-] | [G,B,E] z z2 | z2 z !>![F,-A,C-] | [F,A,C]/ z/ z2 !>![A,CF]- | %32
 [A,CF]zz[G,B,E] | z [B,EG] z [B,EG] |1 z [B,EG] z [B,EG] :|2 A,C F z :| !fermata!G4 |] %37

